dist/assets/images/icons/empty-catalog.svg

<svg width="100" height="110" viewBox="0 0 100 110" fill="none" xmlns="http://www.w3.org/2000/svg">
<path d="M99.4022 32.8914C99.4022 32.8595 99.4022 32.8276 99.3703 32.8276C99.3703 32.7639 99.3384 32.7321 99.3384 32.6684C99.3384 32.6365 99.3065 32.5728 99.3065 32.5409C99.3065 32.5091 99.2746 32.4772 99.2746 32.4454C99.2108 32.2861 99.1471 32.1587 99.0514 32.0312L78.3211 1.60863C77.8746 0.939648 77.141 0.557373 76.3437 0.557373H56.0599H43.9725H23.6887C22.8914 0.557373 22.1578 0.939648 21.7113 1.60863L0.981014 32.0312C0.885335 32.1587 0.821548 32.3179 0.757763 32.4454C0.757763 32.4772 0.72587 32.5091 0.72587 32.5409C0.693977 32.5728 0.693978 32.6365 0.693978 32.6684C0.693978 32.7321 0.662086 32.7639 0.662086 32.8276C0.662086 32.8595 0.662084 32.8914 0.630191 32.8914C0.598298 33.0506 0.566406 33.2099 0.566406 33.3692V107.052C0.566406 108.359 1.65076 109.442 2.95837 109.442H97.074C98.3816 109.442 99.466 108.359 99.466 107.052V33.3692C99.4341 33.2099 99.4341 33.0506 99.4022 32.8914ZM92.5134 30.98H61.6092L58.707 5.33579H75.0361L92.5134 30.98ZM42.8882 35.7584H57.0805V53.2793L51.3716 49.2654C50.957 48.9787 50.4786 48.8194 50.0003 48.8194C49.5219 48.8194 49.0435 48.9787 48.6289 49.2654L42.9201 53.2793V35.7584H42.8882ZM53.8912 5.33579L56.7934 30.98H43.1752L46.0774 5.33579H53.8912ZM24.9644 5.33579H41.2935L38.3913 30.98H7.48714L24.9644 5.33579ZM94.6502 104.663H5.35033V35.7584H38.1361V57.8666C38.1361 58.7585 38.6464 59.5868 39.4118 60.0009C40.2092 60.4151 41.1659 60.3513 41.8995 59.8416L50.0003 54.1394L58.101 59.8416C58.5156 60.1284 58.994 60.2876 59.4724 60.2876C59.8551 60.2876 60.2378 60.1921 60.5887 60.0328C61.386 59.6186 61.8644 58.7904 61.8644 57.8984V35.7903H94.6502V104.663Z" fill="#C0C0C0"/>
<path d="M32.4566 78.7007H15.4896C14.182 78.7007 13.0977 79.7838 13.0977 81.0899C13.0977 82.396 14.182 83.4791 15.4896 83.4791H32.4566C33.7642 83.4791 34.8485 82.396 34.8485 81.0899C34.8485 79.7838 33.7642 78.7007 32.4566 78.7007Z" fill="#C0C0C0"/>
<path d="M23.9731 88.7351H15.4896C14.182 88.7351 13.0977 89.8182 13.0977 91.1243C13.0977 92.4304 14.182 93.5135 15.4896 93.5135H23.9731C25.2807 93.5135 26.3651 92.4304 26.3651 91.1243C26.3651 89.8182 25.2807 88.7351 23.9731 88.7351Z" fill="#C0C0C0"/>
</svg>

<svg width="100" height="110" fill="none" xmlns="http://www.w3.org/2000/svg"><path d="M99.402 32.891c0-.032 0-.063-.032-.063 0-.064-.032-.096-.032-.16 0-.032-.031-.095-.031-.127s-.032-.064-.032-.096a1.717 1.717 0 00-.224-.414L78.321 1.61A2.355 2.355 0 0076.344.557H23.689c-.798 0-1.531.383-1.978 1.052L.981 32.03c-.096.128-.16.287-.223.414 0 .032-.032.064-.032.096-.032.032-.032.096-.032.127 0 .064-.032.096-.032.16 0 .031 0 .063-.032.063-.032.16-.064.319-.064.478v73.683a2.408 2.408 0 002.392 2.39h94.116a2.408 2.408 0 002.392-2.39V33.369c-.032-.16-.032-.318-.064-.478zm-6.889-1.911H61.61L58.707 5.336h16.33L92.512 30.98zm-49.625 4.778h14.193V53.28l-5.71-4.014a2.425 2.425 0 00-1.37-.446c-.48 0-.957.16-1.372.446L42.92 53.28V35.76h-.032zM53.891 5.336l2.902 25.644H43.175l2.902-25.644h7.814zm-28.927 0h16.33L38.39 30.98H7.487L24.964 5.336zm69.686 99.327H5.35V35.758h32.786v22.109c0 .892.51 1.72 1.276 2.134a2.41 2.41 0 002.488-.16L50 54.14l8.101 5.703c.415.286.893.446 1.371.446a2.73 2.73 0 001.117-.255 2.392 2.392 0 001.275-2.135V35.79H94.65v68.873z" fill="silver"/><path d="M32.457 78.7H15.49a2.408 2.408 0 00-2.392 2.39 2.408 2.408 0 002.392 2.39h16.967a2.408 2.408 0 002.392-2.39 2.408 2.408 0 00-2.392-2.39zm-8.484 10.035H15.49a2.408 2.408 0 00-2.392 2.39 2.408 2.408 0 002.392 2.388h8.483a2.408 2.408 0 002.392-2.389 2.408 2.408 0 00-2.392-2.389z" fill="silver"/></svg>
